src/assets/images/logos/fannie.svg

<?xml version="1.0" encoding="utf-8"?>
<svg width="218" height="47" viewBox="0 0 218 47" fill="none" xmlns="http://www.w3.org/2000/svg">
<path d="M58.4109 36.1626V34.0543H61.4231V15.3349H58.4109V13.1626H74.7714V20.1904H72.527V15.3349H64.0219V23.896H68.2744V20.5099H70.3416V29.4543H68.2744V26.0043H64.0219V34.1182H67.5657V36.1626H58.4109ZM85.3437 32.9043C84.2806 35.396 82.804 36.4182 80.2643 36.4182C78.0789 36.4182 76.0117 35.396 75.4802 32.9043C75.303 32.0738 75.303 31.5626 75.303 31.3071C75.303 27.5376 78.138 26.1321 81.2093 26.1321H82.9221H85.3437V24.5988C85.2256 23.3849 85.1075 22.6821 84.2806 21.7876C83.6899 21.1488 82.7449 20.8932 81.9771 20.8932C80.6777 20.8932 79.7918 21.0849 78.9058 22.2349C78.4924 22.8099 78.3743 23.5765 78.3152 24.2154H75.8345C75.9527 21.7876 77.0749 20.0626 79.2011 19.296C80.0871 18.9765 80.914 18.9126 81.859 18.9126C83.5128 18.9126 84.8121 19.2321 86.1115 20.3821C87.3519 21.4682 87.5881 22.9376 87.5881 24.5349V34.1821H90.0688V36.1626H85.4028V32.9043H85.3437ZM80.6187 34.5015C84.1625 34.5015 85.2847 31.3071 85.4028 28.0488C84.635 27.921 83.749 27.921 83.0403 27.921C80.6777 27.921 77.9608 28.0488 77.9608 31.371C77.9017 33.2238 78.8468 34.5015 80.6187 34.5015ZM96.6839 22.4265C97.5108 19.9988 98.9283 18.9126 101.35 18.9126C103.712 18.9126 105.307 19.9988 106.016 22.4265C106.134 23.1932 106.134 23.8321 106.134 24.5988V34.1821H108.556V36.1626H101.291V34.1182H103.712V25.4932C103.712 23.1932 103.24 20.9571 100.641 20.9571C99.6961 20.9571 99.2827 20.9571 98.5148 21.5321C97.8651 21.9793 97.5108 22.4904 97.2154 23.1932C96.5658 24.5349 96.5658 26.0682 96.5658 27.4738V34.1821H98.9873V36.1626H91.6044V34.1182H94.2032V21.3404H91.6635V19.4238H96.5658V22.4265H96.6839ZM115.23 22.4265C116.057 19.9988 117.474 18.9126 119.896 18.9126C122.258 18.9126 123.853 19.9988 124.562 22.4265C124.68 23.1932 124.68 23.8321 124.68 24.5988V34.1821H127.101V36.1626H119.837V34.1182H122.258V25.4932C122.258 23.1932 121.786 20.9571 119.187 20.9571C118.242 20.9571 117.829 20.9571 117.061 21.5321C116.411 21.9793 116.057 22.4904 115.761 23.1932C115.112 24.5349 115.112 26.0682 115.112 27.4738V34.1821H117.533V36.1626H110.15V34.1182H112.749V21.3404H110.209V19.4238H115.112V22.4265H115.23ZM135.961 36.1626H128.696V34.1182H131.177V21.3404H128.696V19.4238H133.539V34.1182H135.961V36.1626ZM133.776 13.1626V15.846H131V13.1626H133.776ZM151.554 28.3043H140.036C140.154 29.9654 140.391 31.4988 141.395 32.7765C142.458 34.1182 143.462 34.4376 145.116 34.4376C147.006 34.4376 148.837 32.9043 149.014 30.9238H151.317C150.727 34.5654 148.069 36.3543 144.643 36.3543C139.564 36.3543 137.438 32.7126 137.438 27.7293C137.438 25.9404 137.792 24.0238 138.619 22.4904C139.8 20.1904 142.222 18.9126 144.702 18.9126C146.12 18.9126 147.833 19.4238 148.955 20.3821C150.195 21.4682 150.845 22.9376 151.199 24.5349C151.436 25.7488 151.554 26.6432 151.554 27.8571V28.3043ZM148.955 26.3876C148.896 23.7043 147.537 20.8293 144.702 20.8293C141.808 20.8293 140.332 23.6404 140.154 26.3876H148.955ZM160.472 36.1626V34.0543H163.544V15.3349H160.472V13.1626H168.032L173.525 32.8404L179.195 13.1626H186.696V15.271H183.684V34.0543H186.696V36.1626H178.427V34.0543H181.144V15.3349H180.908L174.647 36.1626H172.344L166.024 15.271H165.788V34.0543H168.564V36.1626H160.472ZM198.096 32.9043C197.032 35.396 195.556 36.4182 193.016 36.4182C190.831 36.4182 188.764 35.396 188.232 32.9043C188.055 32.0738 188.055 31.5626 188.055 31.3071C188.055 27.5376 190.89 26.1321 193.961 26.1321H195.674H198.096V24.5988C197.977 23.3849 197.859 22.6821 197.032 21.7876C196.442 21.1488 195.497 20.8932 194.729 20.8932C193.43 20.8932 192.544 21.0849 191.658 22.2349C191.244 22.8099 191.126 23.5765 191.067 24.2154H188.586C188.704 21.7876 189.827 20.0626 191.953 19.296C192.839 18.9765 193.666 18.9126 194.611 18.9126C196.265 18.9126 197.564 19.2321 198.863 20.3821C200.104 21.4682 200.34 22.9376 200.34 24.5349V34.1821H202.821V36.1626H198.155V32.9043H198.096ZM193.311 34.5015C196.855 34.5015 197.977 31.3071 198.096 28.0488C197.328 27.921 196.442 27.921 195.733 27.921C193.37 27.921 190.654 28.0488 190.654 31.371C190.654 33.2238 191.599 34.5015 193.311 34.5015ZM217.882 28.3043H206.483C206.601 29.9654 206.837 31.4988 207.841 32.7765C208.904 34.1182 209.908 34.4376 211.503 34.4376C213.393 34.4376 215.165 32.9043 215.401 30.9238H217.705C217.114 34.5654 214.456 36.3543 211.149 36.3543C206.128 36.3543 204.061 32.7126 204.061 27.7293C204.061 25.9404 204.415 24.0238 205.242 22.4904C206.423 20.1904 208.845 18.9126 211.267 18.9126C212.684 18.9126 214.397 19.4238 215.46 20.3821C216.701 21.4682 217.35 22.9376 217.646 24.5349C217.882 25.7488 218 26.6432 218 27.8571V28.3043H217.882ZM215.342 26.3876C215.283 23.7043 213.925 20.8293 211.089 20.8293C208.195 20.8293 206.778 23.6404 206.601 26.3876H215.342ZM21.2628 2.46997C32.0714 2.46997 40.8127 11.9894 40.8127 23.6172C40.8127 35.3089 32.0123 44.7644 21.2628 44.7644C10.4542 44.7644 1.71284 35.245 1.71284 23.6172C1.71284 11.9255 10.4542 2.46997 21.2628 2.46997ZM21.2628 0.617188C9.50919 0.617188 0 10.9033 0 23.6172C0 36.3311 9.50919 46.6172 21.2628 46.6172C33.0164 46.6172 42.5256 36.3311 42.5256 23.6172C42.5256 10.9033 33.0164 0.617188 21.2628 0.617188ZM28.7048 7.77274L17.4237 11.9894V8.92274H12.4033V13.9061L8.38699 15.3116L4.48881 24.895C4.54787 25.0227 4.90225 27.4505 4.90225 27.4505C6.85134 26.8755 8.8595 26.62 10.9858 26.62C19.609 26.62 27.1691 31.6672 31.2445 39.1422L32.3667 38.3755C31.6579 37.0977 30.8901 35.8839 30.0042 34.7977V26.6839L25.0428 25.7255V29.9422C21.5581 27.3227 17.4237 25.6616 12.9349 25.3422C19.8453 23.1061 25.5744 17.8033 28.5276 10.8394L34.3748 25.3422L35.9105 25.6616L28.7048 7.77274ZM26.3422 27.3866L28.7048 27.8339V33.2005C27.9369 32.37 27.1691 31.6033 26.3422 30.9005V27.3866ZM5.84727 25.0866L9.332 16.4616L13.6436 14.8644V10.2644H16.0652V13.9061L27.4644 9.62552C23.9206 18.6977 15.4746 24.895 5.84727 25.0866ZM27.5826 19.6561L28.7048 19.8477V22.3394L27.5826 22.1477V19.6561ZM26.2832 17.995V23.2977L30.0042 24.0005V18.6977L26.2832 17.995Z" fill="#1F3D56"/>
</svg>

<svg width="218" height="47" fill="none" xmlns="http://www.w3.org/2000/svg"><path d="M58.41 36.163v-2.109h3.013v-18.72h-3.012v-2.171h16.36v7.027h-2.244v-4.855h-8.505v8.561h4.252V20.51h2.068v8.944h-2.068v-3.45h-4.252v8.114h3.544v2.045H58.41zm26.934-3.259c-1.063 2.492-2.54 3.514-5.08 3.514-2.185 0-4.252-1.022-4.784-3.514-.177-.83-.177-1.341-.177-1.597 0-3.77 2.835-5.175 5.906-5.175h4.135V24.6c-.118-1.214-.236-1.917-1.063-2.811-.591-.64-1.536-.895-2.304-.895-1.3 0-2.185.192-3.071 1.342-.414.575-.532 1.341-.59 1.98h-2.481c.118-2.427 1.24-4.152 3.366-4.919.886-.32 1.713-.383 2.658-.383 1.654 0 2.953.32 4.253 1.47 1.24 1.085 1.476 2.555 1.476 4.152v9.647h2.48v1.98h-4.665v-3.258h-.06zm-4.725 1.597c3.543 0 4.666-3.194 4.784-6.452-.768-.128-1.654-.128-2.363-.128-2.362 0-5.08.128-5.08 3.45-.058 1.853.887 3.13 2.659 3.13zm16.065-12.074c.827-2.428 2.244-3.514 4.666-3.514 2.362 0 3.957 1.086 4.666 3.514.118.766.118 1.405.118 2.172v9.583h2.422v1.98h-7.265v-2.044h2.421v-8.625c0-2.3-.472-4.536-3.071-4.536-.945 0-1.358 0-2.126.575-.65.447-1.004.958-1.3 1.661-.65 1.342-.65 2.875-.65 4.28v6.71h2.422v1.98h-7.383v-2.045h2.6V21.34h-2.54v-1.916h4.902v3.003h.118zm18.546 0c.827-2.428 2.244-3.514 4.666-3.514 2.362 0 3.957 1.086 4.666 3.514.118.766.118 1.405.118 2.172v9.583h2.421v1.98h-7.264v-2.044h2.421v-8.625c0-2.3-.472-4.536-3.071-4.536-.945 0-1.358 0-2.126.575-.65.447-1.004.958-1.3 1.661-.649 1.342-.649 2.875-.649 4.28v6.71h2.421v1.98h-7.383v-2.045h2.599V21.34h-2.54v-1.916h4.903v3.003h.118zm20.731 13.736h-7.265v-2.045h2.481V21.34h-2.481v-1.916h4.843v14.694h2.422v2.045zm-2.185-23v2.683H131v-2.683h2.776zm17.778 15.141h-11.518c.118 1.661.355 3.195 1.359 4.473 1.063 1.341 2.067 1.66 3.721 1.66 1.89 0 3.721-1.533 3.898-3.513h2.303c-.59 3.641-3.248 5.43-6.674 5.43-5.079 0-7.205-3.641-7.205-8.625 0-1.789.354-3.705 1.181-5.239 1.181-2.3 3.603-3.577 6.083-3.577 1.418 0 3.131.51 4.253 1.47 1.24 1.085 1.89 2.555 2.244 4.152.237 1.214.355 2.108.355 3.322v.447zm-2.599-1.916c-.059-2.684-1.418-5.559-4.253-5.559-2.894 0-4.37 2.811-4.548 5.559h8.801zm11.517 9.775v-2.109h3.072v-18.72h-3.072v-2.171h7.56l5.493 19.677 5.67-19.677h7.501v2.108h-3.012v18.783h3.012v2.109h-8.269v-2.109h2.717v-18.72h-.236l-6.261 20.829h-2.303l-6.32-20.892h-.236v18.783h2.776v2.109h-8.092zm37.624-3.259c-1.064 2.492-2.54 3.514-5.08 3.514-2.185 0-4.252-1.022-4.784-3.514-.177-.83-.177-1.341-.177-1.597 0-3.77 2.835-5.175 5.906-5.175h4.135V24.6c-.119-1.214-.237-1.917-1.064-2.811-.59-.64-1.535-.895-2.303-.895-1.299 0-2.185.192-3.071 1.342-.414.575-.532 1.341-.591 1.98h-2.481c.118-2.427 1.241-4.152 3.367-4.919.886-.32 1.713-.383 2.658-.383 1.654 0 2.953.32 4.252 1.47 1.241 1.085 1.477 2.555 1.477 4.152v9.647h2.481v1.98h-4.666v-3.258h-.059zm-4.785 1.597c3.544 0 4.666-3.194 4.785-6.452-.768-.128-1.654-.128-2.363-.128-2.363 0-5.079.128-5.079 3.45 0 1.853.945 3.13 2.657 3.13zm24.571-6.197h-11.399c.118 1.661.354 3.195 1.358 4.473 1.063 1.341 2.067 1.66 3.662 1.66 1.89 0 3.662-1.533 3.898-3.513h2.304c-.591 3.641-3.249 5.43-6.556 5.43-5.021 0-7.088-3.641-7.088-8.625 0-1.789.354-3.705 1.181-5.239 1.181-2.3 3.603-3.577 6.025-3.577 1.417 0 3.13.51 4.193 1.47 1.241 1.085 1.89 2.555 2.186 4.152.236 1.214.354 2.108.354 3.322v.447h-.118zm-2.54-1.916c-.059-2.684-1.417-5.559-4.253-5.559-2.894 0-4.311 2.811-4.488 5.559h8.741zM21.262 2.47c10.81 0 19.55 9.52 19.55 21.147 0 11.692-8.8 21.147-19.55 21.147-10.808 0-19.55-9.519-19.55-21.147 0-11.692 8.742-21.147 19.55-21.147zm0-1.853C9.51.617 0 10.903 0 23.617s9.51 23 21.263 23c11.753 0 21.263-10.286 21.263-23s-9.51-23-21.263-23zm7.443 7.156l-11.281 4.216V8.923h-5.02v4.983l-4.017 1.406-3.898 9.583c.059.128.413 2.556.413 2.556 1.95-.576 3.958-.831 6.084-.831 8.623 0 16.183 5.047 20.258 12.522l1.123-.767c-.71-1.277-1.477-2.491-2.363-3.577v-8.114l-4.961-.959v4.217c-3.485-2.62-7.62-4.28-12.108-4.6 6.91-2.236 12.64-7.539 15.593-14.503l5.847 14.503 1.535.32-7.205-17.89zm-2.363 19.614l2.363.447V33.2a27.34 27.34 0 00-2.363-2.3v-3.513zm-20.495-2.3l3.485-8.625 4.312-1.598v-4.6h2.421v3.642l11.4-4.28c-3.544 9.072-11.99 15.269-21.618 15.46zm21.736-5.43l1.122.19v2.492l-1.122-.191v-2.492zm-1.3-1.662v5.303l3.721.703v-5.303l-3.72-.703z" fill="#1F3D56"/></svg>
